app/images/icon/logo.svg

<svg width="80" height="63" viewBox="0 0 80 63" fill="none" xmlns="http://www.w3.org/2000/svg">
<path d="M2.40972 46.7798C3.67346 46.0812 4.16556 47.221 3.34655 47.453C1.53589 47.9659 2.10393 50.4426 3.91502 50.9197C5.21457 51.262 8.78252 50.7927 9.66712 50.5702C9.84354 50.4927 11.5683 50.4219 13.3444 50.4036C15.1205 50.3852 17.9478 51.1477 18.7012 51.2579C19.4548 51.3683 20.6838 51.5888 21.4461 51.5979C22.2086 51.6071 23.4601 51.1201 23.4827 51.1154C23.5049 51.1108 23.5677 51.0421 23.7159 50.8675C23.8639 50.6928 24.3527 50.3484 24.3885 50.353C24.4245 50.3576 24.4783 50.4817 24.5052 50.7021C24.5321 50.9226 24.4155 51.0788 24.4155 51.0788C24.4155 51.0788 25.1108 50.895 25.1108 51.0051C25.1108 51.1154 24.9269 51.4369 24.9088 51.4691C24.891 51.5014 25.6266 52.0664 25.8104 52.3283C25.9943 52.59 25.9226 52.5762 25.9764 52.8842C26.0302 53.1918 26.5012 53.9727 26.5191 54.0509C26.5372 54.1289 26.5236 54.1426 26.4474 54.207C26.3711 54.2714 26.3846 54.2345 26.2949 54.3219C26.2051 54.4092 25.8822 54.8087 25.5056 54.9926C25.1287 55.1762 25.0659 55.0201 24.7699 54.8455C24.4739 54.671 23.0925 54.8915 22.8323 55.0937C22.6195 55.259 22.1604 55.7074 22.0005 55.8649L21.9442 55.9206C21.9442 55.9206 21.8724 56.0309 21.7829 56.4535C21.6931 56.8761 21.729 57.2986 21.8367 57.997C21.9442 58.6952 23.0655 60.3121 23.2359 60.45C23.4063 60.5877 23.7114 60.7347 23.9266 60.9737C24.1419 61.2125 23.9535 61.3595 23.7202 61.4331C23.4872 61.5065 22.9129 61.3871 22.7335 61.3135C22.5543 61.24 22.4645 60.7256 21.8724 60.303C21.2804 59.8804 20.3475 59.1086 20.204 58.7228C20.0604 58.3368 19.9348 57.2712 19.9348 57.2712C19.9348 57.2712 19.8092 57.5651 19.4145 58.0612C19.0197 58.5573 18.1047 59.3842 18.1047 59.7334C18.1047 60.0825 18.2124 60.6521 18.3381 60.8726C18.4636 61.093 18.6431 61.1114 18.8044 61.1665L18.8865 61.1937C19.0248 61.2401 19.1694 61.3013 19.2889 61.5157C19.4324 61.7729 19.2709 61.8465 19.0019 61.8465C18.7329 61.8465 18.356 61.9751 17.8895 61.7914C17.4231 61.6075 16.5619 60.0458 16.3646 59.6599C16.1673 59.274 16.5978 58.5575 16.7773 58.2266C16.9566 57.8959 17.2079 57.4549 17.2079 57.4549C17.2079 57.4549 15.5574 57.4734 14.6962 57.2529C13.835 57.0323 12.8467 56.959 12.8467 56.959C12.8467 56.959 12.7748 57.3633 12.6314 57.9512C12.4878 58.5393 11.8061 59.2192 11.7342 59.4396C11.6625 59.6601 12.129 60.1194 12.3981 60.4135C12.6671 60.7074 13.2055 60.9096 13.4207 61.0566C13.636 61.2036 13.8871 61.4424 13.7435 61.7364C13.6 62.0305 13.4745 61.7732 13.2234 61.8283C12.9721 61.8835 12.3443 61.9752 11.9138 61.8835C11.4832 61.7915 11.4652 61.2402 10.8911 60.7442C10.317 60.248 9.72496 59.6968 9.77875 59.3662C9.83255 59.0353 9.90442 57.547 9.88645 57.4552C9.86848 57.3633 9.1329 57.9697 8.34353 58.3554C7.55416 58.7414 5.9396 59.1366 5.84088 59.403C5.74218 59.6694 5.4193 60.9005 5.47309 61.2679C5.52689 61.6354 5.6256 61.8467 5.72431 62.0396L5.76602 62.1214C5.82267 62.2355 5.81397 62.2495 5.72431 62.3338C5.61662 62.4348 4.83623 62.3429 4.66576 62.1039C4.4954 61.8652 4.18151 60.4135 4.29808 60.092C4.41465 59.7705 5.04264 57.6573 5.27589 57.4735C5.50903 57.2897 6.35231 56.7753 6.8187 55.6177C7.18827 54.7008 7.07374 53.2881 7.23309 52.4846C4.67126 52.4601 1.42079 52.728 1 49.1032C0.882524 48.0915 1.53522 47.2633 2.40972 46.7798ZM50.982 0L73.7412 55.1475C74.8501 57.8318 76.8196 59.1741 79.6498 59.1741H80.0001V61.0561H51.4196V59.1741C56.7302 58.9991 59.3854 57.7443 59.3854 55.41C59.3854 54.7681 59.2686 54.1699 59.0353 53.6156L54.8336 43.5051H34.3064L31.1552 51.5584C30.7467 52.6089 30.5424 53.6301 30.5424 54.6222C30.5424 57.4817 32.8767 58.9991 37.5452 59.1741V61.0561L25.9216 61.0592C26.7367 58.7057 28.5583 54.0727 28.6971 53.6988C28.8762 53.2157 29.1393 52.5498 29.1348 52.0605C29.1303 51.5712 29.2774 50.8454 29.006 49.9214C28.7347 48.9973 28.4119 48.2058 28.3644 47.7041C28.3172 47.2026 28.4692 45.8804 28.5199 45.0361C28.5706 44.1918 28.7978 43.6189 28.9036 43.5115C29.0093 43.404 28.9749 43.3161 29.265 43.2963C29.5551 43.2765 29.7185 43.2168 30.1357 43.2581C30.5527 43.2993 31.0225 43.1629 31.3769 43.1469C31.7312 43.1311 32.1074 43.1571 32.5763 42.8995C33.0453 42.6419 33.1268 42.4146 33.3122 42.2013C33.4977 41.9881 33.7298 41.6147 33.8068 41.4094C33.8837 41.2043 33.9285 41.0762 33.5415 40.9901C33.1544 40.9039 32.5338 40.5957 32.1048 40.5102C31.6758 40.4246 31.1562 40.316 30.9453 40.1193C30.7344 39.9227 30.639 39.6846 30.4882 39.5351C30.3374 39.3856 30.2533 39.3077 29.9114 39.1935C29.5698 39.0795 28.9857 38.7296 28.776 38.6751C28.5661 38.6205 28.2971 38.5609 28.2395 38.4444C28.1817 38.328 27.8377 37.5553 27.6945 37.198C27.5512 36.8409 27.2728 36.2351 27.1655 36.2478C27.0584 36.2609 26.9567 37.2007 26.7326 37.7617C26.5086 38.3227 26.1849 38.8472 26.1724 39.1354C26.16 39.4234 25.881 39.878 25.6622 40.2425C25.4435 40.607 24.7041 41.9811 24.4155 42.9709C24.127 43.9607 23.4066 45.2036 23.0385 45.5712C22.6701 45.9389 20.5901 47.2399 20.0422 47.6161C19.8783 47.7287 19.7512 47.8172 19.637 47.894L39.2884 0H50.982ZM44.2417 17.8572L35.6632 40.0038H53.3892L44.2417 17.8572Z" fill="#59443F"/>
</svg>

<svg width="80" height="63" fill="none" xmlns="http://www.w3.org/2000/svg"><path d="M2.41 46.78c1.263-.699 1.756.441.937.673-1.811.513-1.243 2.99.568 3.467 1.3.342 4.868-.127 5.752-.35.177-.077 1.901-.148 3.677-.166 1.777-.019 4.604.744 5.357.854.754.11 1.983.33 2.745.34.763.01 2.014-.478 2.037-.483.022-.004.085-.073.233-.248.148-.174.637-.519.672-.514.036.005.09.129.117.35a.562.562 0 01-.09.376s.696-.184.696-.074-.184.432-.202.464c-.018.032.718.597.901.86.184.261.113.247.166.555.054.308.525 1.089.543 1.167.018.078.005.092-.072.156-.076.064-.062.027-.152.115-.09.087-.413.487-.79.67-.376.184-.44.028-.735-.146-.296-.175-1.677.046-1.938.248-.213.165-.672.613-.832.77l-.056.057s-.072.11-.161.532c-.09.423-.054.846.054 1.544.107.698 1.229 2.315 1.399 2.453.17.138.475.285.69.524.216.239.027.386-.206.46-.233.073-.807-.047-.986-.12-.18-.074-.27-.588-.862-1.011-.592-.423-1.524-1.194-1.668-1.58-.144-.386-.27-1.452-.27-1.452s-.125.294-.52.79c-.394.496-1.31 1.323-1.31 1.672 0 .35.108.92.234 1.14.126.22.305.238.466.294l.083.027a.636.636 0 01.402.322c.143.257-.018.33-.287.33-.27 0-.646.13-1.112-.055-.467-.183-1.328-1.745-1.525-2.131-.198-.386.233-1.102.412-1.433.18-.331.43-.772.43-.772s-1.65.018-2.51-.202c-.862-.22-1.85-.294-1.85-.294s-.072.404-.216.992c-.143.588-.825 1.268-.897 1.489-.072.22.395.68.664.974.27.293.808.496 1.023.643.215.147.466.385.322.68-.143.294-.268.036-.52.091-.25.055-.879.147-1.31.055-.43-.092-.448-.643-1.022-1.139-.574-.496-1.166-1.047-1.112-1.378.054-.33.125-1.819.107-1.91-.018-.093-.753.514-1.542.9-.79.385-2.404.78-2.503 1.047-.099.266-.422 1.498-.368 1.865.054.367.153.579.251.772l.042.081c.057.114.048.128-.042.213-.107.1-.888.009-1.058-.23-.17-.239-.484-1.69-.368-2.012.117-.322.745-2.435.978-2.618.233-.184 1.076-.699 1.543-1.856.37-.917.255-2.33.414-3.133-2.562-.025-5.812.243-6.233-3.382-.117-1.011.535-1.84 1.41-2.323zM50.982 0l22.76 55.148c1.108 2.684 3.078 4.026 5.908 4.026H80v1.882H51.42v-1.882c5.31-.175 7.965-1.43 7.965-3.764 0-.642-.116-1.24-.35-1.794l-4.201-10.11H34.306l-3.15 8.052c-.41 1.05-.614 2.072-.614 3.064 0 2.86 2.335 4.377 7.003 4.552v1.882l-11.623.003c.815-2.353 2.636-6.986 2.775-7.36.18-.483.442-1.15.438-1.639-.005-.489.142-1.215-.129-2.139-.271-.924-.594-1.715-.642-2.217-.047-.501.105-1.824.156-2.668.05-.844.278-1.417.384-1.525.105-.107.07-.195.361-.215.29-.02.453-.08.87-.038.418.041.887-.095 1.242-.111.354-.016.73.01 1.2-.247.468-.258.55-.485.735-.699.186-.213.418-.586.495-.792.077-.205.121-.333-.266-.419-.387-.086-1.007-.394-1.436-.48-.43-.085-.949-.194-1.16-.39-.21-.197-.306-.435-.457-.585-.15-.15-.235-.227-.577-.341-.341-.114-.925-.464-1.135-.519-.21-.054-.479-.114-.537-.23-.057-.117-.401-.89-.544-1.247-.144-.357-.422-.963-.53-.95-.107.013-.208.953-.432 1.514-.224.56-.548 1.085-.56 1.373-.013.288-.292.743-.51 1.108-.22.364-.959 1.738-1.247 2.728-.289.99-1.01 2.233-1.378 2.6-.368.368-2.448 1.669-2.996 2.045-.164.113-.29.201-.405.278L39.288 0h11.694zm-6.74 17.857l-8.579 22.147H53.39l-9.147-22.147z" fill="#59443F"/></svg>
